src/svg/11-flags/flag-tr.svg

<svg xmlns="http://www.w3.org/2000/svg" width="640" height="480"><g fill="none" fill-rule="evenodd"><path fill="#E30A17" d="M0 0h640v480H0z"/><path fill="#FFF" d="M265 336c-53.04 0-96-42.96-96-96s42.96-96 96-96c28.38 0 53.88 12.3 71.46 31.92C315.16 142.32 277.72 120 235 120c-66.3 0-120 53.7-120 120s53.7 120 120 120c42.72 0 80.16-22.32 101.46-55.92C318.88 323.7 293.38 336 265 336z"/><path fill="#FFF" d="M412.9 240l25.62-35.28-41.46 13.5-25.62-35.28v43.56L329.98 240l41.46 13.5v43.56l25.62-35.28 41.46 13.5L412.9 240z"/></g></svg>

<?xml version="1.0" encoding="UTF-8" standalone="no"?>
<svg width="640px" height="480px" viewBox="0 0 640 480" version="1.1" xmlns="http://www.w3.org/2000/svg" xmlns:xlink="http://www.w3.org/1999/xlink">
    <g stroke="none" stroke-width="1" fill="none" fill-rule="evenodd">
        <rect id="red" fill="#E30A17" x="0" y="0" width="640" height="480"></rect>
        <path d="M265,336 C211.96,336 169,293.04 169,240 C169,186.96 211.96,144 265,144 C293.38,144 318.88,156.3 336.46,175.92 C315.16,142.32 277.72,120 235,120 C168.7,120 115,173.7 115,240 C115,306.3 168.7,360 235,360 C277.72,360 315.16,337.68 336.46,304.08 C318.88,323.7 293.38,336 265,336 L265,336 Z" id="Shape" fill="#FFFFFF"></path>
        <path d="M412.9,240 L438.52,204.72 L397.06,218.22 L371.44,182.94 L371.44,226.5 L329.98,240 L371.44,253.5 L371.44,297.06 L397.06,261.78 L438.52,275.28 L412.9,240 Z" id="Shape" fill="#FFFFFF"></path>
    </g>
</svg>
